X:1
T:Title
%%score { ( 1 4 ) | ( 2 3 ) }
L:1/8
M:4/4
K:F
V:1 treble nm="Grand Piano"
V:4 treble 
V:2 bass 
V:3 bass 
V:1
 z4 z2[Q:1/4=106] c>d | c2 z z/ G/ A2 B>A | [B,DG]2 [B,D]2 [B,DG]3 [B,DF] | %3
 [G,CE]3 [CEG] [CEc]2 [CEG]2 |[M:3/4] [CGB] [CFA]3 z2 |[M:1/4] E->[Ed] |[M:4/4] c2 z z/ G/ A2 B>A | %7
 [B,DG]2 [B,D]2 [B,DG]3 [B,DF] | [G,CE]3 [G,EG] [EB]2 [CE]2 |[M:3/4] G F3 z2 |[M:1/4] A2 | %11
[M:4/4] [FA]2 [EG]>[_E^F] [=EG]2 [Gc]2 | d2 c>=B [Ec]2 [Gc]>[Ad] | e3 d f2 =B2 | %14
[M:3/4] [Fd] [Ec]3 z2 |[M:1/4] [Cc]>d |[M:4/4] c2 A>B c2 f>e | [Fd]2 F->[FA] [DFB]2 [Fd]2 | %18
 [Fc]3 [FA] [EB]2 E2 |[M:3/4] G F3 z2 |] %20
V:2
 z4 z2 [F,F]->[F,B,F] | [F,A,F]2 F,->[F,B,] [F,CF]2 D>C | B,,2 B,,2 B,,3 B,, | C,3 C, C,2 C,2 | %4
[M:3/4] F, F,3 z2 |[M:1/4] z z/ B,/ |[M:4/4] [F,A,F]2 A,>B, [F,CF]2 D>C | B,,2 B,,2 B,,3 B,, | %8
 C,3 C, [C,G,]2 [B,,B,]2 |[M:3/4] [F,B,C] [F,A,C]3 z2 |[M:1/4] [F,CF]2 | %11
[M:4/4] [C,C]2 [C,C]2 [C,C]2 [E,C]2 | [F,A,F]2 E>D [C,G,]2 E,>F, | %13
 [G,CG]3 [G,=B,G] [G,B,G]2 [G,F]2 |[M:3/4][K:bass] [C,G,] [C,G,]3 z2 |[M:1/4] z z/ B,/ | %16
[M:4/4] z2 [F,F]2 z4 | [B,,B,]2 z z/ ^C/ B,,2 [B,,B,]2 | [C,A,]3 [C,C] [C,G,]2 [C,B,C]2 | %19
[M:3/4] [F,B,C] [F,A,C]3 z2 |] %20
V:3
 z4 z2 A,2 | z2 A,2 z2 [F,F]2 | x8 | x8 |[M:3/4] x6 |[M:1/4] C,2 |[M:4/4] z2 F,2 z2 [F,F]2 | x8 | %8
 x8 |[M:3/4] x6 |[M:1/4] x2 |[M:4/4] x8 | z2 G,2 z2 B,2 | x8 |[M:3/4][K:bass] x6 |[M:1/4] C,2 | %16
[M:4/4] [F,A,F]2 z z/ G,/ [F,A,F]2 [A,,CF]2 | z2 B,,2 z4 | x8 |[M:3/4] x6 |] %20
V:4
 x8 | z2 F2 z4 | x8 | x8 |[M:3/4] x6 |[M:1/4] [Cc]3/2 z/ |[M:4/4] z2 F2 z4 | x8 | x8 |[M:3/4] x6 | %10
[M:1/4] x2 |[M:4/4] x8 | x8 | x8 |[M:3/4] x6 |[M:1/4] E2 |[M:4/4] x8 | z2 [DG]2 z4 | x8 | %19
[M:3/4] x6 |] %20

